flaticon/symbols/safety.svg

<svg xmlns="http://www.w3.org/2000/svg" width="32" height="32" viewBox="0 0 24 24">
    <path d="M8.175781 6.46875L11.550781 9.847656C11.660156 9.953125 11.800781 10.011719 11.949219 10.011719 12.101562 10.011719 12.242188 9.953125 12.347656 9.847656L15.726562 6.46875C15.945312 6.25 15.945312 5.890625 15.726562 5.671875L12.347656 2.292969C12.136719 2.082031 11.765625 2.082031 11.554688 2.292969L8.171875 5.671875C7.953125 5.890625 7.953125 6.25 8.175781 6.46875zM11.949219 3.03125L14.988281 6.070312 11.949219 9.109375 8.914062 6.070312zM11.554688 14.054688L8.171875 17.433594C7.953125 17.652344 7.953125 18.007812 8.175781 18.230469L11.554688 21.609375C11.660156 21.714844 11.800781 21.773438 11.949219 21.773438 12.101562 21.773438 12.242188 21.714844 12.347656 21.609375L15.726562 18.230469C15.945312 18.007812 15.945312 17.652344 15.726562 17.433594L12.347656 14.054688C12.136719 13.839844 11.765625 13.839844 11.554688 14.054688zM14.988281 17.832031L11.949219 20.871094 8.914062 17.832031 11.949219 14.792969zM6.46875 15.722656L9.847656 12.34375C10.066406 12.121094 10.066406 11.765625 9.847656 11.546875L6.46875 8.167969C6.257812 7.953125 5.882812 7.957031 5.671875 8.167969L2.292969 11.546875C2.074219 11.765625 2.074219 12.121094 2.292969 12.34375L5.671875 15.722656C5.777344 15.828125 5.917969 15.886719 6.070312 15.886719 6.222656 15.886719 6.363281 15.828125 6.46875 15.722656zM3.03125 11.945312L6.070312 8.90625 9.109375 11.945312 6.070312 14.984375zM3.03125 11.945312"/>
    <path d="M 23.800781 11.464844 L 18.257812 5.921875 C 18.210938 5.875 18.152344 5.839844 18.089844 5.8125 C 18.0625 5.75 18.023438 5.691406 17.972656 5.640625 L 12.597656 0.269531 C 12.242188 -0.0898438 11.660156 -0.0898438 11.304688 0.269531 L 5.929688 5.640625 C 5.878906 5.691406 5.839844 5.75 5.8125 5.8125 C 5.75 5.839844 5.691406 5.875 5.644531 5.921875 L 0.269531 11.296875 C -0.0898438 11.652344 -0.0898438 12.234375 0.269531 12.59375 L 5.644531 17.96875 C 5.691406 18.015625 5.746094 18.042969 5.800781 18.074219 C 5.832031 18.140625 5.875 18.203125 5.929688 18.257812 L 11.472656 23.800781 C 11.597656 23.929688 11.769531 24 11.949219 24 C 12.132812 24 12.300781 23.929688 12.429688 23.800781 L 17.972656 18.257812 C 18.027344 18.203125 18.070312 18.140625 18.097656 18.074219 C 18.15625 18.042969 18.210938 18.015625 18.257812 17.96875 L 23.800781 12.425781 C 24.066406 12.160156 24.066406 11.730469 23.800781 11.464844 Z M 11.871094 0.835938 C 11.914062 0.792969 11.988281 0.792969 12.03125 0.835938 L 17.261719 6.066406 L 11.949219 11.375 L 6.640625 6.066406 Z M 0.835938 12.023438 C 0.792969 11.980469 0.792969 11.910156 0.835938 11.863281 L 6.066406 6.636719 L 11.378906 11.949219 L 6.070312 17.257812 Z M 11.949219 23.144531 L 6.640625 17.832031 L 11.949219 12.519531 L 17.261719 17.832031 Z M 17.832031 17.257812 L 12.523438 11.945312 L 17.835938 6.632812 L 23.144531 11.945312 Z M 17.832031 17.257812"/>
    <path d="M 17.433594 8.167969 L 14.054688 11.546875 C 13.835938 11.765625 13.835938 12.121094 14.054688 12.34375 L 17.433594 15.71875 C 17.539062 15.828125 17.679688 15.886719 17.832031 15.886719 C 17.980469 15.886719 18.125 15.828125 18.230469 15.722656 L 21.609375 12.339844 C 21.828125 12.121094 21.828125 11.765625 21.609375 11.546875 L 18.230469 8.167969 C 18.015625 7.953125 17.644531 7.953125 17.433594 8.167969 Z M 17.832031 14.980469 L 14.792969 11.945312 L 17.832031 8.90625 L 20.871094 11.945312 Z M 17.832031 14.980469"/>
</svg>

<svg xmlns="http://www.w3.org/2000/svg" width="32" height="32" viewBox="0 0 24 24">
    <path d="M8.176 6.469l3.375 3.379c.11.105.25.164.398.164a.558.558 0 0 0 .399-.164l3.379-3.38a.566.566 0 0 0 0-.796l-3.38-3.379a.576.576 0 0 0-.792 0L8.172 5.672a.562.562 0 0 0 .004.797zm3.773-3.438l3.04 3.04-3.04 3.038L8.914 6.07zm0 0M11.555 14.055l-3.383 3.379a.562.562 0 0 0 .004.796l3.379 3.38a.558.558 0 0 0 .793 0l3.379-3.38a.566.566 0 0 0 0-.796l-3.38-3.38a.568.568 0 0 0-.792 0zm3.433 3.777l-3.039 3.04-3.035-3.04 3.035-3.039zm0 0M6.469 15.723l3.379-3.38a.566.566 0 0 0 0-.796l-3.38-3.379a.577.577 0 0 0-.796 0l-3.379 3.379a.566.566 0 0 0 0 .797l3.379 3.379a.558.558 0 0 0 .398.164.558.558 0 0 0 .399-.164zM3.03 11.945l3.04-3.039 3.038 3.04-3.039 3.038zm0 0"/>
    <path d="M23.8 11.465l-5.542-5.543a.543.543 0 0 0-.168-.11.56.56 0 0 0-.117-.171L12.598.27a.91.91 0 0 0-1.293 0L5.93 5.64a.56.56 0 0 0-.117.173.543.543 0 0 0-.168.109L.27 11.297a.915.915 0 0 0 0 1.297l5.375 5.375c.046.047.101.074.156.105a.652.652 0 0 0 .129.184l5.543 5.543c.125.129.297.199.476.199a.67.67 0 0 0 .48-.2l5.544-5.542a.568.568 0 0 0 .125-.184c.058-.031.113-.058.16-.105l5.543-5.543a.679.679 0 0 0 0-.961zM11.872.835a.116.116 0 0 1 .16 0l5.23 5.231-5.312 5.309-5.308-5.309zM.836 12.024a.116.116 0 0 1 0-.16l5.23-5.226 5.313 5.312-5.309 5.309zm11.113 11.122l-5.308-5.313 5.308-5.312 5.313 5.312zm5.883-5.887l-5.309-5.313 5.313-5.312 5.309 5.312zm0 0"/>
    <path d="M17.434 8.168l-3.38 3.379a.566.566 0 0 0 0 .797l3.38 3.375a.565.565 0 0 0 .797.004l3.378-3.383a.561.561 0 0 0 0-.793L18.23 8.168a.573.573 0 0 0-.796 0zm.398 6.812l-3.039-3.035 3.039-3.039 3.04 3.04zm0 0"/>
</svg>
